**kern	**kern	**dynam
*part1	*part1	*part1
*staff2	*staff1	*
*I"Piano	*	*
*clefF4	*clefG2	*
*k[]	*k[]	*
*M4/4	*M4/4	*
*met(c)	*met(c)	*
=1	=1	=1
2CC 2GG	2G 2c 2e 2g	pp
2FF 2GG	2G 2B 2d 2g	.
=	=	=
2.EE 2.GG	2.G 2.c 2.g	.
4FF 4GG	4A 4c 4a	.
=	=	=
*^	*	*
2EE 2GG	2ryy	2G 2c 2g	.
[2F	([2DD [2GG	([2G [2B [2f	.
=	=	=	=
2F]	2DD] 2GG]	2G] 2B] 2f]	.
2E 2G	2CC) 2GG	2c) 2e	.
*v	*v	*	*
=	=	=
2FF 2GG	2A 2c 2f 2a	.
[2EE [2GG	2c 2g 2cc	.
=	=	=
!	!LO:TX:b:i:t=dim.	!
2EE] 2GG]	2A 2c 2g	.
2DD 2GG	2G 2B 2f	.
=	=	=
2CC 2GG	2G 2c 2e 2g	.
2FF 2GG	2G 2B 2d 2g	.
=	=	=
*-	*-	*-
!!!system-decoration: {(s1,s2)}
